src/assets/icons/icon-html.svg

<svg width="424" height="469" viewBox="0 0 424 469" fill="none" xmlns="http://www.w3.org/2000/svg">
<path d="M99.8402 94L108.59 234H268.64L264.039 307.781L211.996 322.636L159.953 307.781L158.265 280.664H111.554L115.472 343.602L211.995 371.219L308.518 343.602L318.315 187.332H152.425L149.507 140.664H321.227L324.145 93.996L99.8402 94ZM0.492188 0.667969L26.4222 415.248L211.992 468.248L397.562 415.248L423.492 0.667969H0.492188ZM50.1682 47.336H373.828L353.094 379.426L212.004 419.758L70.9142 379.426L50.1682 47.336Z" fill="black"/>
</svg>

<svg width="424" height="469" fill="none" xmlns="http://www.w3.org/2000/svg"><path d="m99.84 94 8.75 140h160.05l-4.601 73.781-52.043 14.855-52.043-14.855-1.688-27.117h-46.711l3.918 62.938 96.523 27.617 96.523-27.617 9.797-156.27h-165.89l-2.918-46.668h171.72l2.918-46.668L99.84 94ZM.492.668l25.93 414.58 185.57 53 185.57-53L423.492.668h-423Zm49.676 46.668h323.66l-20.734 332.09-141.09 40.332-141.09-40.332-20.746-332.09Z" fill="#000"/></svg>
